X:391
T: HOERT IHR HERRN UND LASST EUCH SAGEN
N: E1581
O: Europa, Mitteleuropa, Deutschland, Sueddeutschland
R: Staende - Lied, Nachtwaechter
M: 3/4
L: 1/8
K: Eb
 | E4G2 | B4G2 | e4B2 | c4B2
e4B2 | c4B2 | B2A2G2 | G2F2z2
B4G2 | c4B2 | B3AG2 | F4z2
e4B2 | c4BA | G4F2 | E4z2
E4G2 | B4G2 | e4B2 | c4B2
e4B2 | c4B2 | B2A2G2 | G2F2z2
B4G2 | c4B2 | B3AG2 | F4z2
e4B2 | c4BA | G4F2 | E4z2

